X: 11183
T: MR. D. WALLACE'S FAVOURITE
C: Copyright.
Q: "Jig time."
%R: jig
B: W. Hamilton "Universal Tune-Book" Vol. 1 Glasgow 1844 p.118 #3
S: http://imslp.org/wiki/Hamilton's_Universal_Tune-Book_(Various)
Z: 2016 John Chambers <jc:trillian.mit.edu>
M: 6/8
L: 1/8
K: G
% - - - - - - - - - - - - - - - - - - - - - - - - -
D |\
G2G A2A | B2B c2A | B2B c2e | d2c B2B |\
e2c d2B | c2A B2e | d2G G2E | D2G "^Fin."G2 H:|
g |\
g2f g2e | d2c B2c | d2G G2_B | A2F D2g |\
g2f g2_b | a2g f2g | =f2d d2c | _B2G "^D.C."G2 |]
% - - - - - - - - - - - - - - - - - - - - - - - - -

%%sep 1 1 500
%%sep 1 1 500

